X:1
T:Title
%%score { ( 1 2 ) | ( 3 4 ) }
L:1/8
Q:1/4=100
M:4/4
K:Eb
V:1 treble nm="Grand Piano"
V:2 treble 
V:3 bass 
V:4 bass 
V:1
 [Ge]2 [EGB]2 [B,EG]2 F[EG] | [CEA]2 [A,CF]2[K:bass] [E,C]2 [E,C]2 | %2
w: S.~S.~Plank * * * *||
 [F,B,D]2 [B,D]E[K:treble] [B,DF]2 [B,EG][FA] | [Ac]2 [GB]2 [GB]4 | [Ge]2 [EGB]2 [B,EG]2 F[EG] | %5
w: |||
 [CEB]2 [CEA]2 C2 C2 | D2 DE [DF]2 [EG][DA] | [Dc]2 [DB]2 E4 | [Ge]3 [Ge] [Ge]3 [GB] | %9
w: ||||
 [GB]2 [Ac]2 [GB][GB] z2 | [Ge]3 [Ge] [Ge]3 [Ac] | [GB]2 [EG]2 [DF]4 | [Ge]3 [Ge] [Ge]3 [GB] | %13
w: ||||
 c2 A2 cc z2 | [GB]3 [GB] [EB]3 [G,E] | [B,DG]2 [A,DF]2 [G,E]4 |] %16
w: |||
V:2
 z4 z2 B,2 | x4[K:bass] x4 | x4[K:treble] x4 | x8 | z4 z2 B,2 | x8 | x8 | x8 | x8 | x8 | x8 | x8 | %12
 x8 | x8 | x8 | x8 |] %16
V:3
 [E,B,]2 E,2 E,2 D,E, | A,,2 A,,2 A,,2 C,2 | B,,2 z C B,,2 z C | [E,E]2 [E,E]2 [E,E]4 | %4
 [E,B,]2 E,2 E,2 D,E, | A,,2 A,,2 [A,,A,]2 [C,A,]2 | [B,,A,B,]2 B,C [B,,B,]2 [B,,B,]2 | %7
 [B,,A,]2 [B,,A,]2 [E,G,]4 | [E,B,]3 [E,B,] [E,B,]3 [E,E] | [E,E]2 [E,E]2 [E,E][E,E] z2 | %10
 [E,B,]3 [E,B,] [E,B,]3 [E,E] | [E,E]2 [E,B,]2 [B,,B,]4 | [E,B,]3 [E,B,] [E,B,]3 [E,E] | %13
 [A,EA]2 [A,CE]2 [A,EA][A,EA] z2 | [E,E]3 [E,B,] [E,G,]3 E, | B,,2 B,,2 E,4 |] %16
V:4
 x8 | x8 | z2 B,,2 z2 B,,2 | x8 | x8 | x8 | z2 [B,,F,]2 z4 | x8 | x8 | x8 | x8 | x8 | x8 | x8 | %14
 x8 | x8 |] %16

